icons/filled/hexagon-number-4.svg

<svg xmlns="http://www.w3.org/2000/svg" width="24" height="24" viewBox="0 0 24 24" fill="currentColor"><path d="M10.425 1.414a3.33 3.33 0 0 1 3.216 0l6.775 3.995c.067 .04 .127 .084 .18 .133l.008 .007l.107 .076a3.223 3.223 0 0 1 1.284 2.39l.005 .203v7.284c0 1.175 -.643 2.256 -1.623 2.793l-6.804 4.302c-.98 .538 -2.166 .538 -3.2 -.032l-6.695 -4.237a3.226 3.226 0 0 1 -1.678 -2.826v-7.285a3.21 3.21 0 0 1 1.65 -2.808zm3.575 5.586a1 1 0 0 0 -.993 .883l-.007 .117v3h-2v-3l-.007 -.117a1 1 0 0 0 -1.986 0l-.007 .117v3l.005 .15a2 2 0 0 0 1.838 1.844l.157 .006h2v3l.007 .117a1 1 0 0 0 1.986 0l.007 -.117v-8l-.007 -.117a1 1 0 0 0 -.993 -.883z"/></svg>

<svg xmlns="http://www.w3.org/2000/svg" width="24" height="24" fill="currentColor"><path d="M10.425 1.414a3.33 3.33 0 0 1 3.216 0l6.775 3.995q.1.06.18.133l.008.007.107.076a3.22 3.22 0 0 1 1.284 2.39l.005.203v7.284c0 1.175-.643 2.256-1.623 2.793l-6.804 4.302c-.98.538-2.166.538-3.2-.032l-6.695-4.237A3.23 3.23 0 0 1 2 15.502V8.217a3.21 3.21 0 0 1 1.65-2.808zM14 7a1 1 0 0 0-.993.883L13 8v3h-2V8l-.007-.117a1 1 0 0 0-1.986 0L9 8v3l.005.15a2 2 0 0 0 1.838 1.844L11 13h2v3l.007.117a1 1 0 0 0 1.986 0L15 16V8l-.007-.117A1 1 0 0 0 14 7"/></svg>
